X: 98
T: In coena Domini. Lectio secunda
C: Gaspar van Weerbeke
%%abc-version 2.0
%%abcx-abcm2ps-target-version 5.9.1 (29 Sep 2008)
%%abc-creator hum2abc beta
%%abcx-conversion-date 2022/03/06 13:05:53
%%abc-copyright Copyright 2018, Pavanello, Agnese
%%abc-edited-by Mair-Gruber, Roland
%%humdrum-veritas 1550312800
%%humdrum-veritas-data 3957962604
%%linebreak <none>
%%barnumbers 0
L: 1/4
M: 2/2
N: Derived from Gas0501b-In_coena_Domini_Lectio_secunda.krn
%%staves [1 2 3 4]
V: 1 clef=treble-8
V: 2 clef=treble-8
V: 3 clef=bass
V: 4 clef=bass
K: F
[V:1] d4- | 
[V:2] A4- | 
[V:3] D,4- | 
[V:4] D,4- | 
[V:1] d4 | 
[V:2] A4- | 
[V:3] D,4 | 
[V:4] D,4 | 
[V:1] c4 | 
[V:2] A4- | 
[V:3] E,4 | 
[V:4] A,,4 | 
[V:1] c4 | 
[V:2] A4 | 
[V:3] F,4- | 
[V:4] F,,4 | 
[V:1] d4- | 
[V:2] B4- | 
[V:3] F,4 | 
[V:4] B,,4 | 
[V:1] d4 | 
[V:2] B4 | 
[V:3] G,4 | 
[V:4] G,,4 | 
[V:1] ^c4 ||  
[V:2] A4 ||  
[V:3] E,4 ||  
[V:4] A,,4 ||  
[V:1] ^c4- | 
[V:2] A4- | 
[V:3] E,4- | 
[V:4] A,,4- | 
[V:1] c4 | 
[V:2] A4 | 
[V:3] E,4 | 
[V:4] A,,4 | 
[V:1] d4 | 
[V:2] _B4 | 
[V:3] G,4 | 
[V:4] G,,4 | 
[V:1] d2d2 | 
[V:2] B2B2 | 
[V:3] F,2G,2 | 
[V:4] B,,2B,,2 | 
[V:1] e3d | 
[V:2] c4 | 
[V:3] A,4 | 
[V:4] A,,4 | 
[V:1] !fermata!^c4 | 
[V:2] !fermata!A4 | 
[V:3] !fermata!E,4 | 
[V:4] !fermata!A,,4 | 
[V:1] z2A2 | 
[V:2] z2c2 | 
[V:3] z2E,2 | 
[V:4] z2A,,2 | 
[V:1] B2c2 | 
[V:2] d2G2 | 
[V:3] G,2E,2 | 
[V:4] G,,2C,2 | 
[V:1] d4 | 
[V:2] B4 | 
[V:3] F,4 | 
[V:4] B,,4 | 
[V:1] d2d2 | 
[V:2] B2B2 | 
[V:3] G,2G,2 | 
[V:4] G,,2G,,2 | 
[V:1] ^c4- | 
[V:2] A4- | 
[V:3] E,4- | 
[V:4] A,,4- | 
[V:1] c2^c2 | 
[V:2] A2A2 | 
[V:3] E,2E,2 | 
[V:4] A,,2A,,2 | 
[V:1] !fermata!d4 | 
[V:2] !fermata!A4 | 
[V:3] !fermata!D,4 | 
[V:4] !fermata!D,4 | 
[V:1] z4 | 
[V:2] z4 | 
[V:3] z4 | 
[V:4] z4 | 
[V:1] e4 | 
[V:2] c4 | 
[V:3] C,4 | 
[V:4] A,,4 | 
[V:1] f4 | 
[V:2] A2c2- | 
[V:3] D,2A,2- | 
[V:4] D,2A,,2 | 
[V:1] e2d2 | 
[V:2] c2A2 | 
[V:3] A,G,F,2 | 
[V:4] C,2D,2 | 
[V:1] ^c4 | 
[V:2] A4 | 
[V:3] E,4 | 
[V:4] A,,4 | 
[V:1] d4 ||  
[V:2] A4 ||  
[V:3] D,4 ||  
[V:4] D,4 ||  
[V:1] f4- | 
[V:2] d4- | 
[V:3] A,4- | 
[V:4] D,4- | 
[V:1] f4 | 
[V:2] d4 | 
[V:3] A,4 | 
[V:4] D,4 | 
[V:1] f4 | 
[V:2] d4 | 
[V:3] A,4 | 
[V:4] D,4 | 
[V:1] e2d2 | 
[V:2] c2d2 | 
[V:3] A,2A,2 | 
[V:4] A,,2D,2 | 
[V:1] e4 | 
[V:2] c4 | 
[V:3] A,4 | 
[V:4] A,,4 | 
[V:1] c4 | 
[V:2] A4 | 
[V:3] E,4 | 
[V:4] A,,4 | 
[V:1] d4- | 
[V:2] B4 | 
[V:3] G,4 | 
[V:4] G,,4 | 
[V:1] d4 | 
[V:2] z2d2- | 
[V:3] D,4 | 
[V:4] B,,4 | 
[V:1] e4 | 
[V:2] d2^c2 | 
[V:3] A,4 | 
[V:4] A,,4 | 
[V:1] !fermata!d4 | 
[V:2] d2!fermata!A2 | 
[V:3] !fermata![F,4A,4] | 
[V:4] !fermata!D,4 | 
[V:1] z4 | 
[V:2] z4 | 
[V:3] z4 | 
[V:4] z4 | 
[V:1] e4 | 
[V:2] c4 | 
[V:3] G,4 | 
[V:4] C,4 | 
[V:1] e2e2- | 
[V:2] c2c2- | 
[V:3] G,2G,2- | 
[V:4] C,2C,2- | 
[V:1] e2e2 | 
[V:2] c2c2 | 
[V:3] G,2G,2 | 
[V:4] C,2C,2 | 
[V:1] d4 | 
[V:2] =B4 | 
[V:3] G,4 | 
[V:4] G,,4 | 
[V:1] c2c2 | 
[V:2] A2A2 | 
[V:3] E,2E,2 | 
[V:4] A,,2A,,2 | 
[V:1] d4 | 
[V:2] F4 | 
[V:3] D,4 | 
[V:4] B,,4 | 
[V:1] =B4 | 
[V:2] G4 | 
[V:3] D,4 | 
[V:4] G,,4 | 
[V:1] z4 | 
[V:2] z4 | 
[V:3] z4 | 
[V:4] z4 | 
[V:1] =B4 | 
[V:2] G3G | 
[V:3] D,4 | 
[V:4] G,,4 | 
[V:1] c2c2 | 
[V:2] G2C2 | 
[V:3] E,2F,2 | 
[V:4] C,2A,,2 | 
[V:1] =B4 | 
[V:2] D4 | 
[V:3] G,4 | 
[V:4] G,,4 | 
[V:1] A2c2- | 
[V:2] z2A2- | 
[V:3] F,2E,2- | 
[V:4] A,,2A,,2- | 
[V:1] c2c2 | 
[V:2] A2A2 | 
[V:3] E,2E,2 | 
[V:4] A,,2A,,2 | 
[V:1] !fermata!d4 | 
[V:2] !fermata!A4 | 
[V:3] !fermata!D,4 | 
[V:4] !fermata!D,4 | 
[V:1] z2e2- | 
[V:2] z2c2- | 
[V:3] z2G,2- | 
[V:4] z2C,2- | 
[V:1] e2e2 | 
[V:2] c2c2 | 
[V:3] G,2A,2 | 
[V:4] C,2A,,2 | 
[V:1] e2e2 | 
[V:2] c2c2 | 
[V:3] G,2G,2 | 
[V:4] C,2E,2 | 
[V:1] f4 | 
[V:2] d>cA3/=B/ | 
[V:3] A,3F, | 
[V:4] D,4 | 
[V:1] e4- | 
[V:2] c4- | 
[V:3] G,4- | 
[V:4] C,4- | 
[V:1] e4 | 
[V:2] c4 | 
[V:3] G,4 | 
[V:4] C,4 | 
[V:1] f2g2- | 
[V:2] c2d2- | 
[V:3] A,2B,2- | 
[V:4] A,,2G,,2- | 
[V:1] g2f2 | 
[V:2] d2c2 | 
[V:3] B,2A,2 | 
[V:4] G,,2A,,2 | 
[V:1] e4 | 
[V:2] c4 | 
[V:3] G,4 | 
[V:4] C,4 | 
[V:1] d2d2- | 
[V:2] A2B2 | 
[V:3] F,2G,2 | 
[V:4] D,2G,,2 | 
[V:1] d^c/=B/^c2 | 
[V:2] A4 | 
[V:3] E,4 | 
[V:4] A,,4 | 
[V:1] d2e2- | 
[V:2] G2A2- | 
[V:3] D,2C,2 | 
[V:4] B,,2A,,2 | 
[V:1] edd2- | 
[V:2] AG/F/G2 | 
[V:3] D,4 | 
[V:4] B,,4 | 
[V:1] d2^c2 | 
[V:2] A4 | 
[V:3] E,4 | 
[V:4] A,,4 | 
[V:1] d4 ||  
[V:2] A4 ||  
[V:3] D,4 ||  
[V:4] D,4 ||  
[V:1] e4- | 
[V:2] c4- | 
[V:3] A,4 | 
[V:4] A,,4 | 
[V:1] e4 | 
[V:2] c4 | 
[V:3] G,4 | 
[V:4] C,4- | 
[V:1] g4 | 
[V:2] c2e2 | 
[V:3] E,4 | 
[V:4] C,4 | 
[V:1] f2e2 | 
[V:2] d2c2 | 
[V:3] A,4 | 
[V:4] D,2A,,2 | 
[V:1] d4 | 
[V:2] d4- | 
[V:3] D,2B,2 | 
[V:4] D,4- | 
[V:1] f4 | 
[V:2] d4 | 
[V:3] A,4- | 
[V:4] D,4 | 
[V:1] e4 ||  
[V:2] c4 ||  
[V:3] A,4 ||  
[V:4] A,,4 ||  
[V:1] f4- | 
[V:2] c4- | 
[V:3] A,4- | 
[V:4] F,,4- | 
[V:1] f2f2 | 
[V:2] c2c2 | 
[V:3] A,2A,2 | 
[V:4] F,,2F,,2 | 
[V:1] e4 | 
[V:2] c4 | 
[V:3] A,4 | 
[V:4] A,,4 | 
[V:1] c2d2- | 
[V:2] z4 | 
[V:3] A,2G,2- | 
[V:4] z4 | 
[V:1] dcA2 | 
[V:2] z4 | 
[V:3] G,2A,2- | 
[V:4] z4 | 
[V:1] =B4 | 
[V:2] E4 | 
[V:3] A,2^G,2 | 
[V:4] E,4 | 
[V:1] !fermata!A4 | 
[V:2] !fermata!E4 | 
[V:3] !fermata!A,4 | 
[V:4] !fermata!A,,4 | 
[V:1] z4 | 
[V:2] z4 | 
[V:3] z4 | 
[V:4] A,,4 | 
[V:1] z4 | 
[V:2] z4 | 
[V:3] D,4 | 
[V:4] B,,4 | 
[V:1] G4 | 
[V:2] z4 | 
[V:3] E,4 | 
[V:4] C,4 | 
[V:1] A4 | 
[V:2] c4 | 
[V:3] F,4 | 
[V:4] A,,4 | 
[V:1] B4 | 
[V:2] d2d2 | 
[V:3] G,4 | 
[V:4] G,,4 | 
[V:1] c2d2- | 
[V:2] G2B2- | 
[V:3] E,2F,2- | 
[V:4] C,2B,,2- | 
[V:1] dcc2- | 
[V:2] B2G2 | 
[V:3] F,E,C,2 | 
[V:4] B,,2C,2 | 
[V:1] c2=B2 | 
[V:2] G4 | 
[V:3] D,4 | 
[V:4] G,,4 | 
[V:1] !fermata!c4 | 
[V:2] !fermata!G4 | 
[V:3] !fermata!C,4 | 
[V:4] !fermata!C,4 | 
[V:1] z4 | 
[V:2] z4 | 
[V:3] z4 | 
[V:4] z4 | 
[V:1] c2d2 | 
[V:2] G2=B2 | 
[V:3] E,2G,2 | 
[V:4] C,2G,,2 | 
[V:1] e3e | 
[V:2] c3c | 
[V:3] G,3G, | 
[V:4] C,3C, | 
[V:1] e4 | 
[V:2] c4 | 
[V:3] A,4 | 
[V:4] A,,4 | 
[V:1] f2e2 | 
[V:2] BAA2- | 
[V:3] D,2C,2 | 
[V:4] D,2A,,2 | 
[V:1] d4 | 
[V:2] A2G2 | 
[V:3] D,4 | 
[V:4] B,,4 | 
[V:1] c3d | 
[V:2] A2c2 | 
[V:3] E,3F, | 
[V:4] A,,4 | 
[V:1] efg2 | 
[V:2] =BAGc- | 
[V:3] G,A,E,2 | 
[V:4] z2C,2 | 
[V:1] f2e2- | 
[V:2] c=Bc2- | 
[V:3] A,4 | 
[V:4] D,2C,2- | 
[V:1] edd2- | 
[V:2] c2A2 | 
[V:3] G,2F,2 | 
[V:4] C,2D,2 | 
[V:1] d2^c2 | 
[V:2] A4 | 
[V:3] E,4 | 
[V:4] A,,4 | 
[V:1] d4 ||  
[V:2] A4 ||  
[V:3] D,4 ||  
[V:4] D,4 ||  
[V:1] d4- | 
[V:2] [G4=B4]- | 
[V:3] [D,4G,4]- | 
[V:4] G,,4- | 
[V:1] d4 | 
[V:2] [G4B4] | 
[V:3] [D,4G,4] | 
[V:4] G,,4 | 
[V:1] e2e2 | 
[V:2] [G2c2][G2c2] | 
[V:3] [C,2G,2][C,2G,2] | 
[V:4] C,2C,2 | 
[V:1] e4- | 
[V:2] c4- | 
[V:3] [C,4G,4] | 
[V:4] C,4 | 
[V:1] !fermata!e4 | 
[V:2] !fermata!c4 | 
[V:3] !fermata![C,4A,4] | 
[V:4] !fermata!A,,4 | 
[V:1] z4 | 
[V:2] z4 | 
[V:3] z4 | 
[V:4] z4 | 
[V:1] f4- | 
[V:2] A4- | 
[V:3] D,4- | 
[V:4] z4 | 
[V:1] f4 | 
[V:2] A4 | 
[V:3] D,4 | 
[V:4] z4 | 
[V:1] f2e2 | 
[V:2] A2c2 | 
[V:3] D,2C,2 | 
[V:4] z4 | 
[V:1] e3d/c/ | 
[V:2] =B2c2 | 
[V:3] G,2A,2 | 
[V:4] z4 | 
[V:1] d4 | 
[V:2] A3=B | 
[V:3] F,4 | 
[V:4] z4 | 
[V:1] e4 | 
[V:2] c2=B2 | 
[V:3] E,4 | 
[V:4] z4 | 
[V:1] z4 | 
[V:2] z4 | 
[V:3] z4 | 
[V:4] z4 | 
[V:1] c4 | 
[V:2] A2A2- | 
[V:3] E,4 | 
[V:4] A,,4 | 
[V:1] d4- | 
[V:2] AAA2 | 
[V:3] F,3E, | 
[V:4] D,3C, | 
[V:1] d2c2 | 
[V:2] z4 | 
[V:3] D,2F,2 | 
[V:4] B,,2A,,2 | 
[V:1] =B4 | 
[V:2] D4 | 
[V:3] G,4 | 
[V:4] G,,4 | 
[V:1] z2A2 | 
[V:2] z2D2 | 
[V:3] z2F,2 | 
[V:4] z4 | 
[V:1] =B2c2 | 
[V:2] GEA2 | 
[V:3] G,2E,2 | 
[V:4] z2A,,2 | 
[V:1] d3c | 
[V:2] F2B2 | 
[V:3] D,3E, | 
[V:4] B,,3C, | 
[V:1] A2B2 | 
[V:2] z2d2- | 
[V:3] F,2G,2 | 
[V:4] D,2G,,2 | 
[V:1] A2d2- | 
[V:2] dcA2- | 
[V:3] A,2F,2 | 
[V:4] D,4 | 
[V:1] d2c2 | 
[V:2] A2A2 | 
[V:3] E,4 | 
[V:4] A,,4 | 
[V:1] f4 | 
[V:2] d4 | 
[V:3] D,4 | 
[V:4] B,,4 | 
[V:1] e4 | 
[V:2] G2c2 | 
[V:3] C,4 | 
[V:4] z2A,,2 | 
[V:1] d2d2- | 
[V:2] _B4 | 
[V:3] F,2G,2 | 
[V:4] B,,2G,,2 | 
[V:1] d2^c2 | 
[V:2] A4- | 
[V:3] E,4 | 
[V:4] A,,4 | 
[V:1] d4 |]  
[V:2] A4 |]  
[V:3] D,4 |]  
[V:4] D,4 |]  


